X: 1
T:Sweet Willy O. WCl.27
M:6/8
L:1/8
Q:70
S:William Clarke MS,Lincoln,1770.
R:Air
O:Lincoln
A:England
Z:vmp.Barry Callaghan
K:G
D|G>AG B,DG|Bcd dcB|c>dc EGc|efg gfe|!
d>ed d>Bd|eEE E2F|G>AG Bcd|eAA A2D|!
G>AG B>dB|G>AG B>dB|G>AG BdB|d=ff f2d|!
ecA dBF|GAG G2d|ecA dBF|GAG G2||
